X:1
T:Bob & Bernie
M:4/4
L:1/8
K:G
| BdcA Bddc | BdcA BGGA | BdcA Bdde | fdcA BGG2 |
| BdcA Bddc | BdcA BGG2 | BdcA BddA | BdcA G2G2 :|
| faaf gbag | gfdc ABcA | faaf gbag | fdcA G2G2 |
| faaf gbag | gfdc ABcA | bgfa gfdc | defa g2g2 :||

